!!!!SEGMENT: pl-sa--481-a-viii-121--004_schall-claus-nielsen--andante.krn
!!!cenid: 18xx:375
!!!COM: Schall, Claus Nielsen
!!!COM-rismID: pe30002855
!!!CDT: 1757/04/28-1835/08/10
!!!CNT: Danish
!!!OTL: Andante
!!!PDT:
!!!AGN: Secular
!!!SMS-siglum: PL-SA
!!!SMS-shelfmark: 481/A VIII 121
!!!SMS-shelfwork: 004 W
!!!SMS-variant:
!!!SMS-altvar:
!!!NIFC-rismSourceID: 1001070440
!!!NIFC-islandoraID:
!!!URL-pdf-islandora:
!!!URL-scan: https://bc.bdsandomierz.pl/dlibra/publication/1212/edition/1171/content @EN{Scan in the Sandomierz Diocese Digital Library} @PL{Skany w portalu Cyfrowa Biblioteka Diecezjalna w Sandomierzu}
!!!ONB-nifc: Str. 4, s. 2-5
!!!AIN: 1 piano
!!!key:
**kern	**kern
*part1	*part1
*staff2	*staff1
*Ipiano	*Iempty
*I"Piano	*
*I'P-no	*
*clefF4	*clefG2
*k[b-e-a-]	*k[b-e-a-]
*E-:	*E-:
*M2/4	*M2/4
!	!LO:TX:a:t=problem&colon;bemol "as" w oktawie małej
!	!LO:TX:a:t=Schall Andante
4r	32r
.	32b-\LLL
.	32cc\
.	32b-\JJJ
.	32an\LLL
.	32b-\
.	32cc\
.	32b-\JJJ
=1	=1
16E-\LL	8ee-\L
16B-\	.
16G\	8ee-\
16B-\JJ	.
*	*rep
16E-\LL	8b-\
16B-\	.
16G\	8b-\J
16B-\JJ	.
=2	=2
*	*rep
16E-\LL	8.g/L
16B-\	.
16G\	.
16B-\JJ	16b-/Jk
!	!LO:TX:a:t=problem&colon;8\left
*	*rep
16E-\LL	8e-/
16B-\	.
16G\	8r
16B-\JJ	.
=3	=3
!	!LO:TX:a:t=problem&colon;mixed beam
16BB-\LL	8d/L 8f
16B-\	.
16BB-\	8d/J 8f
16B-\JJ	.
*	*rep
!	!LO:TX:a:t=problem&colon;mixed beam
16BB-\LL	16.d/LL 16.f
16B-\	.
.	32e-/K 32g
16BB-\	16.f/ 16.a-
16B-\JJ	.
.	32g/JJk 32b-
=4	=4
.	16qqg/ 16qqb-
16E-\LL	8f/L 8a-
16B-\	.
16G\	8e-/J 8g
16B-\JJ	.
*	*rep
16E-\LL	32r
.	(32b-\LLL
16B-\	32cc\
.	32b-\JJJ
16G\	32an\LLL
.	32b-\)
16B-\JJ	32cc\
.	32b-\JJJ
=5	=5
*	*rep
16E-\LL	8ee-\L
16B-\	.
16G\	8ee-\
16B-\JJ	.
*	*rep
16E-\LL	8b-\
16B-\	.
16G\	8b-\J
16B-\JJ	.
=6	=6
*	*rep
16E-\LL	8.g/L
16B-\	.
16G\	.
16B-\JJ	16b-/Jk
!	!LO:TX:a:t=problem&colon;8\left
*	*rep
16E-\LL	8e-/
16B-\	.
16G\	8r
16B-\JJ	.
=7	=7
!!linebreak:original
!	!LO:TX:a:t=problem&colon;8\left
16BB-\LL 16D	8f/L
16F\	.
!	!LO:TX:a:t=problem&colon;16.\left
16BB-\ 16D	16.b-/L
16F\JJ	.
.	32dd/JJk
16C\LL 16E-	16.cc\LL
16F\	.
.	32ee-\K
16C\ 16E-	16an\
16F\JJ	16cc\JJ
=8	=8
16BB-\LL 16D	8b-\L
16F\JJ	.
16BB-\LL 16D	32dd\LL
.	32ee-\
16F\JJ	32ff\
.	32dd\JJJ
*	*rep
16BB-\LL 16D	8b-\
16F\JJ	.
*	*rep
16BB-\LL 16D	8r
16F\JJ	.
=9	=9
.	16qqb-/LL
.	16qqcc/JJ
8r	16.dd-X\LL
.	32cc\JJk
8C\L 8En	4cc\
8D\ 8F	.
8E\J 8G	8b-\
=10	=10
!	!LO:TX:a:t=problem&colon;mixed beam
!	!LO:TX:a:t=problem&colon;8\left
8FF/L	8f/L 8a-
8F/J	16a-/L 16cc
.	16g/JJ 16b-
!	!LO:TX:a:t=problem&colon;mixed beam
!	!LO:TX:a:t=problem&colon;8\left
*	*rep
8FF/L	8f/ 8a-
8F/J	8r
=11	=11
.	(16qqa-/LL
.	16qqb-/JJ)
8r	16.cc\LL
.	32b-\JJk
8BB-\L 8D	4b-\
8C\ 8E-	.
!	!LO:TX:a:t=problem&colon;8\left
8D\J 8F	8a-/
=12	=12
!	!LO:TX:a:t=problem&colon;8\left
!	!LO:TX:a:t=problem&colon;mixed beam
!	!LO:TX:a:t=problem&colon;8\left
8EE-/L	8g/L
!	!LO:TX:a:t=problem&colon;16\left
8E-/J	16g/L 16b-
!	!LO:TX:a:t=problem&colon;16\left
.	16f/JJ 16a-
!	!LO:TX:a:t=problem&colon;mixed beam
!	!LO:TX:a:t=problem&colon;8\left
*	*rep
!	!LO:TX:a:t=problem&colon;8\left
8EE-/L	8e-/ 8g
8E-/J	8r
=13	=13
8E-\L	16ee-M\LL
.	32ff\L
.	32gg\J
8E-\J	16ff\
.	16ee-\JJ
!	!LO:TX:a:t=problem&colon;mixed beam
8F\L	16dd\LL
.	16cc\
8FF\J	16b-\
.	16a-\JJ
=14!|:	=14!|:
!!linebreak:original
16BB-\LL 16D	8b-\L
16F\JJ	.
16BB-\LL 16D	32b-\LL
.	32dd\
16F\JJ	32cc\
.	32b-\JJJ
*	*rep
16BB-\LL 16D	32an\LLL
.	32b-\
16F\JJ	32cc\
.	32b-\JJJ
*	*rep
16BB-\LL 16D	32ee-\LLL
.	32dd\
16F\JJ	32cc\
.	32b-\JJJ
=15	=15
16E-\LL	32an\LLL
.	32cc\
16D\	32b-\
.	32dd\JJJ
16AAn\	32cc\LLL
.	32ee-\
16BB-\JJ	32dd\
.	32ff\JJJ
!	!LO:N:vis=32
16C\LL	32ee-\LLL
.	32dd\
!	!LO:N:vis=32
16D\	32cc\
.	32b-\JJJ
!	!LO:N:vis=32
16E-\	32a\LLL
.	32b-\
!	!LO:N:vis=32
16F\JJ	32cc\
.	32a\JJJ
=16:|!	=16:|!
16BB-\LL 16D	32b-/LLL
.	32B-/
16F\	32c/
.	32d/JJJ
16BB-\ 16D	32e-/LLL
.	32f/
16F\JJ	32g/
.	32an/JJJ
!	!LO:TX:a:t=problem&colon;16\left
16BB-/LL 16D	32b-\LLL
.	32cc\
!	!LO:TX:a:t=problem&colon;16\left
16FF/ 16E-	32an\
.	32cc\JJJ
!	!LO:TX:a:t=problem&colon;16\left
16BB-/ 16D	32b-\LLL
.	32cc\
!	!LO:TX:a:t=problem&colon;16\left
16FF/JJ 16E-	32a\
.	32cc\JJJ
=17	=17
4BB-;/ 4D	4b-;/
4r	32r
.	32b-\LLL
.	32cc\
.	32b-\JJJ
.	32an\LLL
.	32b-\
.	32cc\
.	32b-\JJJ
=18	=18
!!linebreak:original
16E-\LL	8ee-\L
16B-\	.
16G\	8ee-\
16B-\JJ	.
*	*rep
16E-\LL	8b-\
16B-\	.
16G\	8b-\J
16B-\JJ	.
=19	=19
!	!LO:TX:a:t=problem&colon;8\left
*	*rep
16E-\LL	8.g/L
16B-\	.
16G\	.
16B-\JJ	16b-/Jk
!	!LO:TX:a:t=problem&colon;8\left
*	*rep
16E-\LL	8e-/
16B-\	.
16G\	8r
16B-\JJ	.
=20	=20
!	!LO:TX:a:t=problem&colon;mixed beam
!	!LO:TX:a:t=problem&colon;8\left
16BB-\LL	8d/L 8f
16B-\	.
!	!LO:TX:a:t=problem&colon;8\left
16BB-\	8d/J 8f
16B-\JJ	.
*	*rep
!	!LO:TX:a:t=problem&colon;mixed beam
16BB-\LL	16.d/LL 16.f
16B-\	.
.	32e-/K 32g
16BB-\	16.f/ 16.a-
16B-\JJ	.
.	32g/JJk 32b-
=21	=21
.	16qqg/ 16qqb-
16E-\LL	8f/L 8a-
16B-\	.
16G\	8e-/J 8g
16B-\JJ	.
*	*rep
16E-\LL	32r
.	32b-\LLL
16B-\	32cc\
.	32b-\JJJ
16G\	32an\LLL
.	32b-\
16B-\JJ	32cc\
.	32b-\JJJ
=22	=22
*	*rep
16E-\LL	8ee-\L
16B-\	.
16G\	8ee-\
16B-\JJ	.
*	*rep
16E-\LL	8b-\
16B-\	.
16G\	8b-\J
16B-\JJ	.
=23	=23
*	*rep
16E-\LL	8.g/L
16B-\	.
16G\	.
16B-\JJ	16b-/Jk
!	!LO:TX:a:t=problem&colon;8\left
*	*rep
16E-\LL	8e-/
16B-\	.
16G\	8r
16B-\JJ	.
=24	=24
8A-\L	8cc\L
8A-\J	32dd\LL
.	32ee-\
.	32dd\
.	32cc\JJJ
!	!LO:TX:a:t=problem&colon;mixed beam
8B-\L	16g/LL 16b-
.	16f/ 16a-
8BB-\J	16e-/ 16g
.	16d/JJ 16f
=25	=25
!!pagebreak:original
!	!LO:TX:a:t=problem&colon;8\left
16E-\LL	8e-/
16B-\	.
16G\	32ee-\LLL
.	32dd\
16B-\JJ	32cc\
.	32b-\JJJ
16E-\LL	32gg\LLL
.	32ff\
16B-\JJ	32ee-\
.	32dd\JJJ
!	!LO:N:vis=8
16G\LL	32cc\LLL
.	32b-\
!	!LO:N:vis=8
16B-\JJ	32a-\
.	32g\JJJ
=26	=26
!	!LO:TX:a:t=problem&colon;mixed beam
8r	16f\LL
.	16bb-'\
16FF/LL 16AA-	16bb-'\
16GG/JJ 16BB-	16bb-'\JJ
16AA-/LL 16C	16bb-\LL
16GG/ 16BB-	16bb-\
16AA-/ 16C	16bb-\
16FF/JJ 16AA-	16bb-\JJ
=27	=27
!	!LO:N:vis=32
16E-\LL	8ee-\
!	!LO:N:vis=32
16B-\	.
!	!LO:N:vis=32
16G\	(32ee-\LLL
.	32dd\
!	!LO:N:vis=32
16B-\JJ	32cc\
.	32b-\JJJ)
*	*rep
16E-\LL	(32ee-\LLL
.	32dd\
16B-\	32cc\
.	32b-\JJJ)
16G\	(32a-/LLL
.	32g/
16B-\JJ	32f/
.	32e-/JJJ)
=28	=28
!	!LO:TX:a:t=problem&colon;mixed beam
8r	16f\LL
.	16bb-\
16FF/LL 16AA-	16bb-\
16GG/JJ 16BB-	16bb-\JJ
16AA-/LL 16C	16bb-\LL
16GG/ 16BB-	16bb-\
16AA-/ 16C	16bb-\
16FF/JJ 16AA-	16bb-\JJ
=29	=29
16E-\LL 16G	8ee-\
16B-\JJ	.
*	*rep
16E-\LL 16G	8r
16B-\JJ	.
16D\LL 16F	16r
16A-\JJ	32b-\LLL
.	32cc\JJJ
*	*rep
16D\LL 16F	32dd\LLL
.	32b-\
16A-\JJ	32cc\
.	32dd\JJJ
=30	=30
!!linebreak:original
16E-\LL 16G	8ee-\
16B-\JJ	.
*	*rep
16E-\LL 16G	8r
16B-\JJ	.
16F\LL 16A-	16r
16B-\JJ	32b-\LLL
.	32cc\JJJ
*	*rep
16F\LL 16A-	32dd\LLL
.	32b-\
16B-\JJ	32cc\
.	32dd\JJJ
=31	=31
16E-\LL	16ee-\LL
16E-\	16ee-\
16BB-\	16b-\
16E-\JJ	16ee-\JJ
16GG/LL	16g\LL
16E-/	16ee-\
16BB-/	16b-\
16GG/JJ	16g\JJ
=32	=32
!	!LO:TX:a:t=problem&colon;8\left
!	!LO:TX:a:t=problem&colon;8\left
8EE-/ 8E-	8e-/
8r	8r
8EE-/ 8E-	8b-/ 8ee- 8gg
8r	8r
=33	=33
8EE-/ 8E-	8G/ 8B- 8e-
8r	8r
4r	4r
==	==
*-	*-
!!!system-decoration: {(s1,s2)}
!!!ENC: Marcin Jachim
!!!END: 2020-06-14
!!!YEC: Copyright 2022 Narodowy Instytut Fryderyka Chopina (https://polishscores.org)
!!!YEM: Licence CC BY 4.0 (https://creativecommons.org/licenses/by/4.0)
